X: 27778
T: Morpeth Lasses, The
R: reel
M: 4/4
K: Aminor
|:A>BcA EAA2|B>AGd BGG2|A>BcA EAAe|dBGB BAA2:|
a>gea gea2|g>edg BGg2|a>gea gea2|gegB BAA2|
a>gea gea2|g>edg BGG2|AcBd cea2|gegB BAA2||

